src/svg/24/forward_10_24.svg

<?xml version="1.0" encoding="UTF-8"?>
<svg width="24px" height="24px" viewBox="0 0 24 24" version="1.1" xmlns="http://www.w3.org/2000/svg" xmlns:xlink="http://www.w3.org/1999/xlink">
    <!-- Generator: Sketch 50.2 (55047) - http://www.bohemiancoding.com/sketch -->
    <title>forward_10_24</title>
    <desc>Created with Sketch.</desc>
    <defs></defs>
    <g id="Page-2" stroke="none" stroke-width="1" fill="none" fill-rule="evenodd">
        <g id="forward_10_24">
            <polygon id="a" points="24 24 0 24 0 0 24 0"></polygon>
            <path d="M12.1209342,4.25 L12.1209342,2.35597185 C12.1209342,2.29126348 12.1388728,2.22782183 12.1727573,2.17269457 C12.2739785,2.00801604 12.4895329,1.95657375 12.6542114,2.05779499 L16.9558249,4.70182315 C17.0026082,4.73057893 17.0419687,4.76993946 17.0707245,4.81672273 C17.1719458,4.98140126 17.1205035,5.19695561 16.9558249,5.29817685 L12.6542114,7.94220501 C12.5990842,7.97608951 12.5356425,7.99402815 12.4709341,7.99402815 C12.2776345,7.99402815 12.1209342,7.83732781 12.1209342,7.64402815 L12.1209342,5.75 C8.66915447,5.75 5.87093415,8.54822031 5.87093415,12 C5.87093415,15.4517797 8.66915447,18.25 12.1209342,18.25 C15.1390851,18.25 17.7111031,16.094738 18.2628137,13.1643327 C18.3394517,12.7572706 18.731568,12.489409 19.13863,12.566047 C19.5456921,12.6426851 19.8135536,13.0348014 19.7369156,13.4418634 C19.0523233,17.0780694 15.8637302,19.75 12.1209342,19.75 C7.84072734,19.75 4.37093415,16.2802068 4.37093415,12 C4.37093415,7.71979319 7.84072734,4.25 12.1209342,4.25 Z M9.39990234,14.65 L9.39990234,11 L8.53389173,11.3464042 C8.39031235,11.403836 8.22736062,11.3339995 8.16992887,11.1904202 C8.1566994,11.1573465 8.14990234,11.1220522 8.14990234,11.0864308 L8.14990234,10.5803476 C8.14990234,10.4405643 8.2330748,10.3141852 8.36145759,10.258893 L10.206498,9.46426702 C10.3840324,9.3878061 10.5899364,9.46974239 10.6663973,9.64727685 C10.6852295,9.69100331 10.6949427,9.7381122 10.6949427,9.78572161 L10.6949427,14.65 C10.6949427,14.8432997 10.5382424,15 10.3449427,15 L9.74990234,15 C9.55660268,15 9.39990234,14.8432997 9.39990234,14.65 Z M13.8872055,14.9985831 C12.6790854,14.9985831 11.6975911,14.3041446 11.6997105,12.1985832 C11.7018298,10.0930218 12.6790854,9.39858323 13.8872055,9.39858323 C15.0953257,9.39858323 16.0776146,10.0930218 16.0747006,12.1985832 C16.0717865,14.3041446 15.0953257,14.9985831 13.8872055,14.9985831 Z M13.889707,13.8801252 C14.4993396,13.8801252 14.829707,13.4755572 14.829707,12.2510343 C14.829707,11.0265113 14.4939107,10.6219434 13.889707,10.6219434 C13.2855033,10.6219434 12.949707,11.0270322 12.949707,12.2510343 C12.949707,13.4750364 13.2800745,13.8801252 13.889707,13.8801252 Z" id="Mask" fill="currentColor"></path>
        </g>
    </g>
</svg>

<svg width="24" height="24" fill="none" xmlns="http://www.w3.org/2000/svg"><path d="M12.654 2.058l4.302 2.644a.35.35 0 010 .596l-4.302 2.644a.35.35 0 01-.533-.298V5.75a6.25 6.25 0 106.142 7.414.75.75 0 111.474.278A7.752 7.752 0 014.37 12a7.75 7.75 0 017.75-7.75V2.356a.35.35 0 01.533-.298zm-1.988 7.59a.35.35 0 01.029.138v4.864a.35.35 0 01-.35.35H9.75a.35.35 0 01-.35-.35V11l-.866.346a.28.28 0 01-.384-.26v-.506a.35.35 0 01.211-.321l1.845-.795a.35.35 0 01.46.183zm3.221-.25c1.208 0 2.19.695 2.188 2.8-.003 2.106-.98 2.8-2.188 2.8-1.208 0-2.19-.694-2.187-2.8.002-2.105.98-2.8 2.187-2.8zm.003 1.224c-.604 0-.94.405-.94 1.629s.33 1.63.94 1.63c.61 0 .94-.405.94-1.63 0-1.224-.336-1.63-.94-1.63z" fill="currentColor"/></svg>
